X: 15192
T: Gillian's
R: waltz
M: 3/4
K: Amajor
c/ B>A|:F2 F>E F>A|F2 F>E F>A|B2B>A B>c|
A2 A>B c>e|f3- f/f/ e>d|e>A A>B c>A|
[1 B2 B>A B>A|B3- B/c/ B>A:|2 E2 B>A (3cBA|A2- A/A/ (3Bce||
|:f3- f/f/ e>d|e>A A>B c>A|E>B B>e E>B|
c>A B>c e>A|f3- f/f/ e>d|e>A A>B c>A|
[1 E>B B>A c/B/A|A2 a2 g2:|2 E>B B>A c/B/A|A3 z/||

